X: 189
T:Marcha procesional de Belmonte de Miranda
M:6/8
L:1/8
Q:200
C:Trad
R:Marcha
B:Metodo de Gaita. Dayures
K:C
E3- EEC | B,2 C D2E | F3 FGF |
E3- EEC | B,2 C D2E |1 C2- C G2G :|2 C2-C GAB |
c3 G3 | G3 GAG | G3 F3 | E3  GAG | G3 F3 |
E3 GAG | F3 E3 | D3 ABA | G3 F3 | E3 GAG| 
F3 E3 | D3 ABA | GEG F/E/DE | C6 ||

